Sardi Mono Papirus Dark/16x16/actions/transform-shear-up.svg

<?xml version="1.0" encoding="UTF-8" standalone="no"?>
<!-- Created with Inkscape (http://www.inkscape.org/) -->
<svg id="svg3049" xmlns:rdf="http://www.w3.org/1999/02/22-rdf-syntax-ns#" xmlns="http://www.w3.org/2000/svg" height="16" width="16" version="1.1" xmlns:cc="http://creativecommons.org/ns#" xmlns:dc="http://purl.org/dc/elements/1.1/">
 <defs id="defs3051">
  <style id="current-color-scheme" type="text/css">.ColorScheme-Text {
        color:#4d4d4d;
      }
      .ColorScheme-Background {
        color:#eff0f1;
      }
      .ColorScheme-Highlight {
        color:#3daee9;
      }
      .ColorScheme-ViewText {
        color:#31363b;
      }
      .ColorScheme-ViewBackground {
        color:#fcfcfc;
      }
      .ColorScheme-ViewHover {
        color:#93cee9;
      }
      .ColorScheme-ViewFocus{
        color:#3daee9;
      }
      .ColorScheme-ButtonText {
        color:#31363b;
      }
      .ColorScheme-ButtonBackground {
        color:#eff0f1;
      }
      .ColorScheme-ButtonHover {
        color:#93cee9;
      }
      .ColorScheme-ButtonFocus{
        color:#3daee9;
      }</style>
 </defs>
 <metadata id="metadata3054">
  <rdf:RDF>
   <cc:Work rdf:about="">
    <dc:format>image/svg+xml</dc:format>
    <dc:type rdf:resource="http://purl.org/dc/dcmitype/StillImage"/>
    <dc:title/>
   </cc:Work>
  </rdf:RDF>
 </metadata>
 <g id="layer1" transform="translate(-421.71 -531.79)">
  <path id="path4142" opacity=".72" style="color:#4d4d4d" d="m1 1v9h2.8652 0.1348v-3.8027l7-1.5547v-3.6426h-10zm13 4l-9 2v9l9-2v-9z" fill-rule="evenodd" transform="translate(421.71 531.79)" fill="#fff"/>
 </g>
</svg>

<?xml version="1.0" encoding="UTF-8" standalone="no"?>
<svg xmlns="http://www.w3.org/2000/svg" width="16" height="16" viewBox="0 0 16 16">
 <defs>
  <style type="text/css" id="current-color-scheme">
   .ColorScheme-Text { color:#d3dae3; }
  </style>
 </defs>
 <path style="fill:currentColor;opacity:1" class="ColorScheme-Text" d="M 1 1 L 1 10 L 4 10 L 4 6.1972656 L 11 4.6425781 L 11 1 L 1 1 z M 14 5 L 5 7 L 5 16 L 14 14 L 14 5 z"/>
</svg>
